sort-bool-ascending-variant.svg

<svg fill="currentColor" viewBox="0 0 24 24"><path d="M19 17h3l-4 4-4-4h3V3h2zM9 13H5c-1.11 0-2 .89-2 2v4c0 1.11.89 2 2 2h4c1.11 0 2-.89 2-2v-4c0-1.11-.89-2-2-2m-2.73 6.5-2.53-2.55 1.07-1.05 1.47 1.49L9.2 14.5l1.06 1.05zM9 3H5c-1.11 0-2 .89-2 2v4c0 1.11.89 2 2 2h4c1.11 0 2-.89 2-2V5c0-1.11-.89-2-2-2m0 6H5V5h4z"/></svg>

<svg  viewBox="0 0 24 24" fill="currentColor"><path  d="M19 17H22L18 21L14 17H17V3H19V17M9 13H5C3.89 13 3 13.89 3 15V19C3 20.11 3.89 21 5 21H9C10.11 21 11 20.11 11 19V15C11 13.89 10.11 13 9 13M6.27 19.5L3.74 16.95L4.81 15.9L6.28 17.39L9.2 14.5L10.26 15.55L6.27 19.5M9 3H5C3.89 3 3 3.89 3 5V9C3 10.11 3.89 11 5 11H9C10.11 11 11 10.11 11 9V5C11 3.89 10.11 3 9 3M9 9H5V5H9V9Z"/></svg>
